images/category_icons/dive-icon.svg

<svg xmlns="http://www.w3.org/2000/svg" fill="none" viewBox="0 0 496 496"><path fill="#000" d="M472 224h-8v-16c0-8.824-7.176-16-16-16h-48c-8.824 0-16 7.176-16 16v16c0 8.824 7.176 16 16 16h-56l-3.176-4.24A24.215 24.215 0 01336 221.296c0-6.44 2.504-12.496 7.056-17.048l10.312-10.312c17.848-17.848 28.36-41.032 30.24-65.936H384c8.824 0 16-7.176 16-16V96c0-8.824-7.176-16-16-16h-.408C379.536 35.216 341.824 0 296 0h-8.232c-38.232 0-70.904 27.104-78.528 64H208c-8.824 0-16 7.176-16 16v48c0 8.824 7.176 16 16 16v8h-16c-8.824 0-16 7.176-16 16v8c0 5.616 1.024 10.984 2.8 16H176c-17.648 0-32 14.352-32 32s14.352 32 32 32h77.408c-20.728 10.536-37.792 27.304-48.624 48H56c-22.056 0-40 17.944-40 40a39.991 39.991 0 008.112 24.112C19.088 374.792 16 383.008 16 392c0 22.056 17.944 40 40 40h97.864c12.952 0 25.768-1.768 38.136-5.168V496h304V328c0-15.824-5.192-30.424-13.88-42.32C490.296 281.848 496 273.608 496 264v-16c0-13.232-10.768-24-24-24zM56 320h40v32H56c-7.232 0-13.92 2.08-19.784 5.448C33.544 353.504 32 348.848 32 344c0-13.232 10.768-24 24-24zm0 96c-13.232 0-24-10.768-24-24s10.768-24 24-24h40v48H56zm416-176c4.408 0 8 3.584 8 8v16c0 4.416-3.592 8-8 8h-2.848c-6.272-5.064-13.416-9.048-21.152-11.8V240h24zm8 96v80H368v-80h64v-16h-59.24c7.088-8.656 11.24-19.6 11.24-31.024v-.056c10.512-10.752 24.888-16.92 40-16.92 28.152 0 51.456 20.912 55.36 48H448v16h32zm-272 96h144v16H208v-16zm144-16H219.816c3.024-1.56 6-3.216 8.92-4.992L352 335.976V416zm16 16h112v16H368v-16zm64-192v16.472a71.478 71.478 0 00-8-.472c-2.688 0-5.36.168-8 .464V240h16zm-32-32h48v16h-48v-16zm0 52.184a71.874 71.874 0 00-19.56 10.544A48.897 48.897 0 00371.128 256H400v4.184zm-57.944-77.56l-10.32 10.312c-7.568 7.576-11.736 17.648-11.736 28.36 0 6.792 1.824 13.504 5.104 19.432-1.624.216-3.24.488-4.848.816v-.04l-30.144 3.168c-.712.088-1.4.248-2.112.352v-1.808c0-13.176-.816-26.336-2.04-39.448l19.608-3.92-3.136-15.688-18.168 3.632c-2.104-15.952-5.016-31.792-8.92-47.4L272.248 128h95.368c-1.84 20.632-10.736 39.8-25.56 54.624zM272 96h16v16h-16V96zm112 16h-80V96h80v16zm-96.232-96H296c36.992 0 67.536 28.056 71.528 64H272c0-8.824-7.176-16-16-16h-30.32c7.296-27.864 32.616-48 62.088-48zM208 80h48l.008 48H208V80zm48 64c1.256 0 2.464-.184 3.64-.456l.176.712c3.84 15.368 6.72 30.96 8.752 46.664l-1.912.384a34.992 34.992 0 01-6.984.696C240 192 224 176 224 156.328V144h32zm-64 24h17.376A51.605 51.605 0 00224 193.616V208c-17.648 0-32-14.352-32-32v-8zm-32 56c0-8.824 7.176-16 16-16h12.32c8.792 9.792 21.504 16 35.68 16 8.824 0 16-7.176 16-16v-3.912A51.337 51.337 0 00259.672 208c3.424 0 6.832-.344 10.136-1.008l.384-.08c.984 11 1.624 22.032 1.712 33.08H176c-8.824.008-16-7.168-16-15.992zm119.72 38.976l-59.696 46.432c12.624-22.792 34.176-39.76 59.696-46.432zM112 320h85.944a112.234 112.234 0 00-2.504 8.52l-17.184 13.368c-8.384 6.52-18.848 10.112-29.472 10.112H112v-32zm0 96v-48h36.784c14.168 0 28.12-4.792 39.296-13.488l110.656-86.064C309.064 260.424 321.952 256 335.024 256 353.208 256 368 270.8 368 288.976c0 11.432-6.064 22.216-15.832 28.16l-131.752 80.2A127.978 127.978 0 01153.864 416H112zm96 48h144v16H208v-16zm160 16v-16h112v16H368z"/><path fill="#000" d="M72 288c17.648 0 32-14.352 32-32s-14.352-32-32-32-32 14.352-32 32 14.352 32 32 32zm0-48c8.824 0 16 7.176 16 16s-7.176 16-16 16-16-7.176-16-16 7.176-16 16-16zM464 64c17.648 0 32-14.352 32-32S481.648 0 464 0s-32 14.352-32 32 14.352 32 32 32zm0-48c8.824 0 16 7.176 16 16s-7.176 16-16 16-16-7.176-16-16 7.176-16 16-16zM48 168c0-13.232-10.768-24-24-24S0 154.768 0 168s10.768 24 24 24 24-10.768 24-24zm-32 0c0-4.416 3.592-8 8-8 4.408 0 8 3.584 8 8s-3.592 8-8 8c-4.408 0-8-3.584-8-8zM112 112c13.232 0 24-10.768 24-24s-10.768-24-24-24-24 10.768-24 24 10.768 24 24 24zm0-32c4.408 0 8 3.584 8 8s-3.592 8-8 8c-4.408 0-8-3.584-8-8s3.592-8 8-8zM440 128c13.232 0 24-10.768 24-24s-10.768-24-24-24-24 10.768-24 24 10.768 24 24 24zm0-32c4.408 0 8 3.584 8 8s-3.592 8-8 8c-4.408 0-8-3.584-8-8s3.592-8 8-8z"/></svg>

<svg width="496" height="496" viewBox="0 0 496 496" fill="none" xmlns="http://www.w3.org/2000/svg">
<path d="M472 224H464V208C464 199.176 456.824 192 448 192H400C391.176 192 384 199.176 384 208V224C384 232.824 391.176 240 400 240H344L340.824 235.76C337.712 231.616 336 226.488 336 221.296C336 214.856 338.504 208.8 343.056 204.248L353.368 193.936C371.216 176.088 381.728 152.904 383.608 128H384C392.824 128 400 120.824 400 112V96C400 87.176 392.824 80 384 80H383.592C379.536 35.216 341.824 0 296 0H287.768C249.536 0 216.864 27.104 209.24 64H208C199.176 64 192 71.176 192 80V128C192 136.824 199.176 144 208 144V152H192C183.176 152 176 159.176 176 168V176C176 181.616 177.024 186.984 178.8 192H176C158.352 192 144 206.352 144 224C144 241.648 158.352 256 176 256H253.408C232.68 266.536 215.616 283.304 204.784 304H104H96H56C33.944 304 16 321.944 16 344C16 352.776 18.904 361.224 24.112 368.112C19.088 374.792 16 383.008 16 392C16 414.056 33.944 432 56 432H96H104H153.864C166.816 432 179.632 430.232 192 426.832V496H496V328C496 312.176 490.808 297.576 482.12 285.68C490.296 281.848 496 273.608 496 264V248C496 234.768 485.232 224 472 224ZM56 320H96V352H56C48.768 352 42.08 354.08 36.216 357.448C33.544 353.504 32 348.848 32 344C32 330.768 42.768 320 56 320ZM56 416C42.768 416 32 405.232 32 392C32 378.768 42.768 368 56 368H96V416H56ZM472 240C476.408 240 480 243.584 480 248V264C480 268.416 476.408 272 472 272H469.152C462.88 266.936 455.736 262.952 448 260.2V240H472ZM480 336V416H368V336H432V320H372.76C379.848 311.344 384 300.4 384 288.976C384 288.96 384 288.936 384 288.92C394.512 278.168 408.888 272 424 272C452.152 272 475.456 292.912 479.36 320H448V336H480ZM208 432H352V448H208V432ZM352 416H219.816C222.84 414.44 225.816 412.784 228.736 411.008L352 335.976V416ZM368 432H480V448H368V432ZM432 240V256.472C429.368 256.176 426.704 256 424 256C421.312 256 418.64 256.168 416 256.464V240H432ZM400 208H448V224H400V208ZM400 260.184C392.992 262.664 386.392 266.2 380.44 270.728C378.232 265.256 375.056 260.288 371.128 256H400V260.184ZM342.056 182.624L331.736 192.936C324.168 200.512 320 210.584 320 221.296C320 228.088 321.824 234.8 325.104 240.728C323.48 240.944 321.864 241.216 320.256 241.544V241.504L290.112 244.672C289.4 244.76 288.712 244.92 288 245.024V243.216C288 230.04 287.184 216.88 285.96 203.768L305.568 199.848L302.432 184.16L284.264 187.792C282.16 171.84 279.248 156 275.344 140.392L272.248 128H367.616C365.776 148.632 356.88 167.8 342.056 182.624ZM272 96H288V112H272V96ZM384 112H304V96H384V112ZM287.768 16H296C332.992 16 363.536 44.056 367.528 80H272C272 71.176 264.824 64 256 64H225.68C232.976 36.136 258.296 16 287.768 16ZM208 80H256L256.008 128H208V80ZM256 144C257.256 144 258.464 143.816 259.64 143.544L259.816 144.256C263.656 159.624 266.536 175.216 268.568 190.92L266.656 191.304C264.384 191.768 262.032 192 259.672 192C240 192 224 176 224 156.328V144H256ZM192 168H209.376C211.688 177.944 216.856 186.784 224 193.616V208C206.352 208 192 193.648 192 176V168ZM160 224C160 215.176 167.176 208 176 208H188.32C197.112 217.792 209.824 224 224 224C232.824 224 240 216.824 240 208V204.088C246.072 206.6 252.712 208 259.672 208C263.096 208 266.504 207.656 269.808 206.992L270.192 206.912C271.176 217.912 271.816 228.944 271.904 239.992H176C167.176 240 160 232.824 160 224ZM279.72 262.976L220.024 309.408C232.648 286.616 254.2 269.648 279.72 262.976ZM112 320H197.944C197 322.792 196.168 325.632 195.44 328.52L178.256 341.888C169.872 348.408 159.408 352 148.784 352H112V320ZM112 416V368H148.784C162.952 368 176.904 363.208 188.08 354.512L298.736 268.448C309.064 260.424 321.952 256 335.024 256C353.208 256 368 270.8 368 288.976C368 300.408 361.936 311.192 352.168 317.136L220.416 397.336C200.36 409.544 177.344 416 153.864 416H112ZM208 464H352V480H208V464ZM368 480V464H480V480H368Z" fill="black"/>
<path d="M72 288C89.648 288 104 273.648 104 256C104 238.352 89.648 224 72 224C54.352 224 40 238.352 40 256C40 273.648 54.352 288 72 288ZM72 240C80.824 240 88 247.176 88 256C88 264.824 80.824 272 72 272C63.176 272 56 264.824 56 256C56 247.176 63.176 240 72 240Z" fill="black"/>
<path d="M464 64C481.648 64 496 49.648 496 32C496 14.352 481.648 0 464 0C446.352 0 432 14.352 432 32C432 49.648 446.352 64 464 64ZM464 16C472.824 16 480 23.176 480 32C480 40.824 472.824 48 464 48C455.176 48 448 40.824 448 32C448 23.176 455.176 16 464 16Z" fill="black"/>
<path d="M48 168C48 154.768 37.232 144 24 144C10.768 144 0 154.768 0 168C0 181.232 10.768 192 24 192C37.232 192 48 181.232 48 168ZM16 168C16 163.584 19.592 160 24 160C28.408 160 32 163.584 32 168C32 172.416 28.408 176 24 176C19.592 176 16 172.416 16 168Z" fill="black"/>
<path d="M112 112C125.232 112 136 101.232 136 88C136 74.768 125.232 64 112 64C98.768 64 88 74.768 88 88C88 101.232 98.768 112 112 112ZM112 80C116.408 80 120 83.584 120 88C120 92.416 116.408 96 112 96C107.592 96 104 92.416 104 88C104 83.584 107.592 80 112 80Z" fill="black"/>
<path d="M440 128C453.232 128 464 117.232 464 104C464 90.768 453.232 80 440 80C426.768 80 416 90.768 416 104C416 117.232 426.768 128 440 128ZM440 96C444.408 96 448 99.584 448 104C448 108.416 444.408 112 440 112C435.592 112 432 108.416 432 104C432 99.584 435.592 96 440 96Z" fill="black"/>
</svg>
